X: 41632
T: Up The Pond
R: jig
M: 6/8
K: Gmajor
|:B|d2c BAG|A2G FED|EFG ABc|ABG FED|
d2c BAG|A2G FED|EFG ABc|BcA G2:|
|:D|DEF GAB|c3 B3|E2A ABG|FGE D2D|
DEF GAB|c3 B3|EAG FEF|G2B G2:|
|:D|DED B,2C|D2G G2F|EFE c2B|B3 A2D|
DED B,2C|D2G G2F|EAG FEF|G2B G2:|
|:B|ABG FED|GFG BAG|GBd GBd|cBA GFE|
DED B,2C|D2G G2F|EAG FEF|G2B G2:|

